fbsindependent/logo_standard/notre_dame_fighting_irish.svg

<?xml version="1.0" encoding="UTF-8" standalone="no"?>
<!-- Created with Inkscape (http://www.inkscape.org/) -->

<svg
   xmlns:dc="http://purl.org/dc/elements/1.1/"
   xmlns:cc="http://creativecommons.org/ns#"
   xmlns:rdf="http://www.w3.org/1999/02/22-rdf-syntax-ns#"
   xmlns:svg="http://www.w3.org/2000/svg"
   xmlns="http://www.w3.org/2000/svg"
   version="1.0"
   width="280"
   height="200"
   id="svg4262">
  <metadata
     id="metadata3066">
    <rdf:RDF>
      <cc:Work
         rdf:about="">
        <dc:format>image/svg+xml</dc:format>
        <dc:type
           rdf:resource="http://purl.org/dc/dcmitype/StillImage" />
        <dc:title></dc:title>
      </cc:Work>
    </rdf:RDF>
  </metadata>
  <defs
     id="defs4264" />
  <g
     transform="matrix(0.36363587,0,0,0.36363587,-3.2727,-9.0910063)"
     id="layer1">
    <path
       d="m 187.92573,574.77464 c -0.74017,-0.14758 -1.77553,-0.49105 -2.30079,-0.76316 -1.36568,-0.7075 -3.54461,-3.30319 -3.92528,-4.6761 -0.20825,-0.75126 -0.32256,-13.25597 -0.31915,-34.92624 0.005,-33.26339 0.0149,-33.77722 0.66208,-35.20961 0.80981,-1.79218 1.99355,-3.07388 3.682,-3.98661 1.26039,-0.68131 1.66091,-0.7009 17.57306,-0.85876 15.9225,-0.15789 16.31185,-0.17695 17.57306,-0.85995 1.52039,-0.82348 3.07573,-2.40714 3.9138,-3.98537 0.53514,-1.0078 0.61117,-2.08685 0.69992,-9.93302 l 0.0996,-8.80238 -72.09498,0 c -64.00236,0 -72.227786,-0.0555 -73.276236,-0.49451 -1.891093,-0.7916 -3.098956,-1.88835 -4.126606,-3.74671 l -0.958994,-1.73474 -0.08726,-35.50685 c -0.09823,-39.6079 -0.194919,-37.74152 2.093487,-40.27902 0.645938,-0.71617 1.764506,-1.61864 2.486168,-2.00554 1.263032,-0.6773 1.760364,-0.70941 13.403164,-0.86492 11.642717,-0.15547 12.140127,-0.18761 13.403247,-0.86491 0.72149,-0.3869 1.83778,-1.28672 2.48071,-1.99965 2.34764,-2.60325 2.17272,4.12475 2.17272,-83.54434 0,-87.17421 0.15957,-80.77439 -2.07984,-83.39537 -0.61985,-0.72545 -1.82017,-1.66377 -2.66735,-2.08519 -1.51825,-0.75514 -1.71488,-0.76853 -13.631807,-0.92806 -10.633918,-0.14231 -12.213662,-0.22886 -13.105137,-0.71767 -1.408631,-0.77208 -2.911025,-2.34211 -3.754887,-3.92307 l -0.713213,-1.33552 -0.08726,-35.5069 c -0.09839,-39.65236 -0.198576,-37.73461 2.115506,-40.30628 0.657881,-0.73118 1.921806,-1.66857 2.808162,-2.08314 l 1.612488,-0.75371 71.984988,-0.003 71.98502,-0.003 0,-7.85546 c 0,-8.89064 -0.2233,-10.21588 -2.08948,-12.40003 -0.62517,-0.73167 -1.8255,-1.67016 -2.66739,-2.08552 -1.52784,-0.75377 -1.56117,-0.75551 -17.65279,-0.91671 -15.74686,-0.15776 -16.15209,-0.17774 -17.41185,-0.85874 -1.68845,-0.91274 -2.87219,-2.19443 -3.682,-3.98662 -0.64716,-1.432287 -0.65689,-1.948368 -0.66389,-35.172139 -0.005,-24.92746 0.0918,-34.049111 0.37215,-34.986453 0.49772,-1.664451 2.50279,-3.913265 4.24036,-4.755927 l 1.38797,-0.673102 54.63263,0.0079 c 36.32445,0.0052 55.11587,0.119426 56.0746,0.34076 2.65204,0.61221 5.44574,2.201222 7.52717,4.281285 1.75589,1.754736 5.45251,7.76397 31.03237,50.445618 l 29.03911,48.453638 78.57595,0.0814 78.57599,0.0814 0,-7.85611 c 0,-8.89134 -0.22328,-10.21651 -2.08946,-12.40069 -0.62518,-0.73167 -1.8255,-1.67016 -2.66742,-2.08552 -1.52782,-0.75377 -1.56117,-0.75551 -17.65278,-0.91671 -18.11003,-0.18141 -17.37434,-0.0823 -19.69269,-2.65308 -2.20863,-2.4491 -2.07284,0.0258 -2.065,-37.633789 0.008,-38.433197 -0.18684,-35.419773 2.45337,-37.949904 2.50626,-2.401759 -5.67038,-2.196998 87.4097,-2.18911 83.57408,0.0071 83.76777,0.0086 85.21547,0.665085 1.78899,0.811258 3.06835,1.997153 3.97945,3.688643 l 0.69594,1.292085 0.0864,33.861411 c 0.0582,22.803351 -0.0236,34.270881 -0.2506,35.115268 -0.52112,1.938891 -2.19485,3.912481 -4.16821,4.915071 l -1.7484,0.88832 -15.19959,0 c -17.07566,0 -17.52051,0.0491 -19.90068,2.19863 -0.72666,0.65621 -1.65972,1.91992 -2.07352,2.80824 -0.72667,1.55993 -0.75247,1.89925 -0.7555,9.93299 l -0.003,8.31786 22.66441,0 c 24.93132,0 24.48621,-0.0314 28.41629,2.0056 1.67504,0.86818 5.93666,4.99897 29.23266,28.33526 23.86574,23.90701 27.40436,27.57584 28.3335,29.37607 2.09572,4.06048 1.94328,-4.69152 1.93882,111.32429 -0.003,71.56205 -0.11188,106.42076 -0.33632,107.39647 -0.18279,0.79458 -0.77697,2.39353 -1.32047,3.55328 -0.91415,1.9506 -3.00891,4.13727 -27.95405,29.18033 -16.20346,16.26699 -27.71877,27.57884 -28.85221,28.34235 -1.03746,0.69886 -2.83024,1.56273 -3.98385,1.91971 -2.01779,0.62437 -2.97307,0.64905 -25.11814,0.64905 l -23.02064,0 0,48.55759 c 0,53.78905 0.14461,50.16218 -2.10452,52.79453 -0.60624,0.70955 -1.79543,1.63497 -2.64267,2.05656 l -1.5404,0.76657 -36.75828,0 c -36.5962,0 -36.76474,-0.003 -38.21293,-0.67454 -0.80006,-0.37096 -1.89315,-1.11386 -2.42918,-1.65086 -0.53601,-0.53695 -14.53638,-23.66953 -31.11196,-51.40567 l -30.13743,-50.42944 -76.19573,-0.007 -76.19568,-0.007 0.0995,8.80238 c 0.0888,7.84617 0.16478,8.92522 0.69994,9.93302 0.83803,1.57823 2.39338,3.16189 3.91381,3.98537 1.26118,0.683 1.65053,0.70206 17.57307,0.85995 l 16.28331,0.16154 1.52063,0.89552 c 0.83641,0.49258 1.88387,1.37253 2.32776,1.95552 1.89383,2.4874 1.79431,0.43167 1.79431,37.07536 0,25.06047 -0.0978,33.9752 -0.38332,34.9298 -0.50511,1.68899 -2.81249,4.22245 -4.53142,4.97537 -1.32626,0.58095 -4.18833,0.60304 -84.2403,0.64861 -45.57708,0.026 -83.47303,-0.0736 -84.21315,-0.22124 z m 37.62037,-275.06651 0,-86.43307 -8.30285,0.109 c -9.12784,0.1199 -9.51818,0.19294 -11.81157,2.21019 -0.66258,0.58281 -1.52265,1.65483 -1.91123,2.38234 l -0.70646,1.32266 -0.0948,79.78695 c -0.071,59.77577 -0.001,80.11098 0.27893,81.079 0.47172,1.631 1.75498,3.43312 3.10407,4.35923 2.12572,1.45923 3.044,1.58761 11.46353,1.60252 l 7.98041,0.0142 0,-86.43302 z m 193.04629,86.19076 c -0.0738,-0.13326 -21.41248,-35.81592 -47.41939,-79.29486 -37.96604,-63.47259 -47.47242,-79.14958 -48.23505,-79.54467 -1.90129,-0.98495 -3.82867,-0.4474 -5.08333,1.4178 l -0.73517,1.09291 0,78.28555 0,78.28553 50.80352,0 c 27.94195,0 50.74317,-0.10901 50.66942,-0.24226 z m 223.75252,-0.63357 c 1.69668,-0.90911 3.08036,-2.29535 3.85899,-3.86605 0.59504,-1.2003 0.61419,-3.41914 0.6995,-81.18249 0.0811,-73.89984 0.0471,-80.05607 -0.44865,-81.37091 -0.71029,-1.88385 -2.5228,-3.85245 -4.31447,-4.68598 -1.38472,-0.64425 -2.05111,-0.67951 -14.59044,-0.77254 l -13.13952,-0.0975 0,86.43915 0,86.43911 13.30073,-0.0943 c 13.0169,-0.0922 13.32916,-0.10946 14.63386,-0.80853 z m -121.28573,-5.96191 c 1.89935,-1.49672 1.77782,4.27296 1.77782,-84.40615 l 0,-81.57396 -53.07609,0 c -42.33266,0 -53.04319,0.0817 -52.91351,0.40378 0.67165,1.66788 98.80805,164.69705 99.55649,165.3883 1.24239,1.14753 3.33068,1.23186 4.65529,0.18803 z"
       id="path2286"
       style="fill:#000066;fill-opacity:1" />
  </g>
</svg>

<?xml version="1.0" encoding="UTF-8" standalone="no"?>
<!-- Created with Inkscape (http://www.inkscape.org/) -->
<svg xmlns:svg="http://www.w3.org/2000/svg" xmlns="http://www.w3.org/2000/svg" version="1.0" width="800" height="600" id="svg4262">
  <defs id="defs4264"/>
  <g id="layer1">
    <path d="M 187.92573,574.77464 C 187.18556,574.62706 186.1502,574.28359 185.62494,574.01148 C 184.25926,573.30398 182.08033,570.70829 181.69966,569.33538 C 181.49141,568.58412 181.3771,556.07941 181.38051,534.40914 C 181.3857,501.14575 181.39537,500.63192 182.04259,499.19953 C 182.8524,497.40735 184.03614,496.12565 185.72459,495.21292 C 186.98498,494.53161 187.3855,494.51202 203.29765,494.35416 C 219.22015,494.19627 219.6095,494.17721 220.87071,493.49421 C 222.3911,492.67073 223.94644,491.08707 224.78451,489.50884 C 225.31965,488.50104 225.39568,487.42199 225.48443,479.57582 L 225.58401,470.77344 L 153.48903,470.77344 C 89.48667,470.77344 81.261244,470.71791 80.212794,470.27893 C 78.321701,469.48733 77.113838,468.39058 76.086188,466.53222 L 75.127194,464.79748 L 75.039932,429.29063 C 74.9417,389.68273 74.845013,391.54911 77.133419,389.01161 C 77.779357,388.29544 78.897925,387.39297 79.619587,387.00607 C 80.882619,386.32877 81.379951,386.29666 93.022751,386.14115 C 104.66547,385.98568 105.16288,385.95354 106.426,385.27624 C 107.14749,384.88934 108.26378,383.98952 108.90671,383.27659 C 111.25435,380.67334 111.07943,387.40134 111.07943,299.73225 C 111.07943,212.55804 111.239,218.95786 108.99959,216.33688 C 108.37974,215.61143 107.17942,214.67311 106.33224,214.25169 C 104.81399,213.49655 104.61736,213.48316 92.700431,213.32363 C 82.066513,213.18132 80.486769,213.09477 79.595294,212.60596 C 78.186663,211.83388 76.684269,210.26385 75.840407,208.68289 L 75.127194,207.34737 L 75.039932,171.84047 C 74.941538,132.18811 74.841356,134.10586 77.155438,131.53419 C 77.813319,130.80301 79.077244,129.86562 79.9636,129.45105 L 81.576088,128.69734 L 153.56108,128.69421 L 225.5461,128.69103 L 225.5461,120.83557 C 225.5461,111.94493 225.3228,110.61969 223.45662,108.43554 C 222.83145,107.70387 221.63112,106.76538 220.78923,106.35002 C 219.26139,105.59625 219.22806,105.59451 203.13644,105.43331 C 187.38958,105.27555 186.98435,105.25557 185.72459,104.57457 C 184.03614,103.66183 182.8524,102.38014 182.04259,100.58795 C 181.39543,99.155663 181.3857,98.639582 181.3787,65.415811 C 181.37347,40.488351 181.47049,31.3667 181.75085,30.429358 C 182.24857,28.764907 184.25364,26.516093 185.99121,25.673431 L 187.37918,25.000329 L 242.01181,25.008249 C 278.33626,25.013475 297.12768,25.127675 298.08641,25.349009 C 300.73845,25.961219 303.53215,27.550231 305.61358,29.630294 C 307.36947,31.38503 311.06609,37.394264 336.64595,80.075912 L 365.68506,128.52955 L 444.26101,128.61094 L 522.837,128.69234 L 522.837,120.83623 C 522.837,111.94489 522.61372,110.61972 520.74754,108.43554 C 520.12236,107.70387 518.92204,106.76538 518.08012,106.35002 C 516.5523,105.59625 516.51895,105.59451 500.42734,105.43331 C 482.31731,105.2519 483.053,105.35099 480.73465,102.78023 C 478.52602,100.33113 478.66181,102.80598 478.66965,65.146441 C 478.67763,26.713244 478.48281,29.726668 481.12302,27.196537 C 483.62928,24.794778 475.45264,24.999539 568.53272,25.007427 C 652.1068,25.0145 652.30049,25.016015 653.74819,25.672512 C 655.53718,26.48377 656.81654,27.669665 657.72764,29.361155 L 658.42358,30.65324 L 658.51,64.514651 C 658.56817,87.318002 658.48635,98.785532 658.2594,99.629919 C 657.73828,101.56881 656.06455,103.5424 654.09119,104.54499 L 652.34279,105.43331 L 637.1432,105.43331 C 620.06754,105.43331 619.62269,105.48245 617.24252,107.63194 C 616.51586,108.28815 615.5828,109.55186 615.169,110.44018 C 614.44233,112.00011 614.41653,112.33943 614.4135,120.37317 L 614.41032,128.69103 L 637.07473,128.69103 C 662.00605,128.69103 661.56094,128.65964 665.49102,130.69663 C 667.16606,131.56481 671.42768,135.6956 694.72368,159.03189 C 718.58942,182.9389 722.12804,186.60773 723.05718,188.40796 C 725.1529,192.46844 725.00046,183.71644 724.996,299.73225 C 724.99328,371.2943 724.88412,406.15301 724.65968,407.12872 C 724.47689,407.9233 723.88271,409.52225 723.33921,410.682 C 722.42506,412.6326 720.3303,414.81927 695.38516,439.86233 C 679.1817,456.12932 667.66639,467.44117 666.53295,468.20468 C 665.49549,468.90354 663.70271,469.76741 662.5491,470.12439 C 660.53131,470.74876 659.57603,470.77344 637.43096,470.77344 L 614.41032,470.77344 L 614.41032,519.33103 C 614.41032,573.12008 614.55493,569.49321 612.3058,572.12556 C 611.69956,572.83511 610.51037,573.76053 609.66313,574.18212 L 608.12273,574.94869 L 571.36445,574.94869 C 534.76825,574.94869 534.59971,574.94572 533.15152,574.27415 C 532.35146,573.90319 531.25837,573.16029 530.72234,572.62329 C 530.18633,572.08634 516.18596,548.95376 499.61038,521.21762 L 469.47295,470.78818 L 393.27722,470.78077 L 317.08154,470.77344 L 317.18109,479.57582 C 317.26984,487.42199 317.34587,488.50104 317.88103,489.50884 C 318.71906,491.08707 320.27441,492.67073 321.79484,493.49421 C 323.05602,494.17721 323.44537,494.19627 339.36791,494.35416 L 355.65122,494.5157 L 357.17185,495.41122 C 358.00826,495.9038 359.05572,496.78375 359.49961,497.36674 C 361.39344,499.85414 361.29392,497.79841 361.29392,534.4421 C 361.29392,559.50257 361.19609,568.4173 360.9106,569.3719 C 360.40549,571.06089 358.09811,573.59435 356.37918,574.34727 C 355.05292,574.92822 352.19085,574.95031 272.13888,574.99588 C 226.5618,575.02185 188.66585,574.92232 187.92573,574.77464 z M 225.5461,299.70813 L 225.5461,213.27506 L 217.24325,213.38406 C 208.11541,213.50396 207.72507,213.577 205.43168,215.59425 C 204.7691,216.17706 203.90903,217.24908 203.52045,217.97659 L 202.81399,219.29925 L 202.71916,299.0862 C 202.64812,358.86197 202.7181,379.19718 202.99809,380.1652 C 203.46981,381.7962 204.75307,383.59832 206.10216,384.52443 C 208.22788,385.98366 209.14616,386.11204 217.56569,386.12695 L 225.5461,386.14115 L 225.5461,299.70813 z M 418.59239,385.89889 C 418.51861,385.76563 397.17991,350.08297 371.173,306.60403 C 333.20696,243.13144 323.70058,227.45445 322.93795,227.05936 C 321.03666,226.07441 319.10928,226.61196 317.85462,228.47716 L 317.11945,229.57007 L 317.11945,307.85562 L 317.11945,386.14115 L 367.92297,386.14115 C 395.86492,386.14115 418.66614,386.03214 418.59239,385.89889 z M 642.34491,385.26532 C 644.04159,384.35621 645.42527,382.96997 646.2039,381.39927 C 646.79894,380.19897 646.81809,377.98013 646.9034,300.21678 C 646.98448,226.31694 646.95051,220.16071 646.45475,218.84587 C 645.74446,216.96202 643.93195,214.99342 642.14028,214.15989 C 640.75556,213.51564 640.08917,213.48038 627.54984,213.38735 L 614.41032,213.28987 L 614.41032,299.72902 L 614.41032,386.16813 L 627.71105,386.07385 C 640.72795,385.98166 641.04021,385.96439 642.34491,385.26532 z M 521.05918,379.30341 C 522.95853,377.80669 522.837,383.57637 522.837,294.89726 L 522.837,213.3233 L 469.76091,213.3233 C 427.42825,213.3233 416.71772,213.40504 416.8474,213.72708 C 417.51905,215.39496 515.65545,378.42413 516.40389,379.11538 C 517.64628,380.26291 519.73457,380.34724 521.05918,379.30341 z " style="opacity:1;fill:#000066;fill-opacity:1" id="path2286"/>
  </g>
</svg>
